X:191
T: Contented I Am
N: O'Farrell's Pocket Companion v.3 (Sky ed. p.99)
N: "Irish"
M: 6/8
L: 1/8
R: jig
Q: 320
K: G
G/A/| B>cB B>AG| BAA A2G/A/| BGE D>EG/A/| BGG G2 :|
B/A/| GBd dc/B/A/G/| GBd e2g| d>ed e/d/c/B/A/G/ |GBd He2 de/f/|
gfe dcB| BAA A2 G/A/| BGE D>EG/A/| BGG G2 ||
